X: 1
T: Polska av Gustav i Backen
O: F\"ollinge
S: from a tape by Mats & Ulf Andersson
M: 9/16
L: 1/16
K: D
|: "D"A2A F3- F2(3ABc | d3 A6 | f2d d2A A2F | "Em"GAG E3- E2G \
| "A7"GAG E3- E2c | cdc A3- A2f | g2e e2c ABc | "D"d3 d6 :|
|: "D"aba faf d2f | "Em"f2e e2f g3 |1,3 "A7"gag ege c2e | "D"e2d d2f a3 \
                                  :|2,4 "A7"gag ege cAc | "D"d3 d6 :|
